svgs/thin/calendar-circle-minus.svg

<svg xmlns="http://www.w3.org/2000/svg" viewBox="0 0 576 512"><!--! Font Awesome Pro 6.6.0 by @fontawesome - https://fontawesome.com License - https://fontawesome.com/license (Commercial License) Copyright 2024 Fonticons, Inc. --><path d="M128 8c0-4.4-3.6-8-8-8s-8 3.6-8 8l0 56L64 64C28.7 64 0 92.7 0 128l0 48 0 16L0 448c0 35.3 28.7 64 64 64l266.8 0c-6.9-4.9-13.5-10.2-19.6-16L64 496c-26.5 0-48-21.5-48-48l0-256 336 0 80 0 16 0 0-16 0-48c0-35.3-28.7-64-64-64l-48 0 0-56c0-4.4-3.6-8-8-8s-8 3.6-8 8l0 56L128 64l0-56zM112 80l0 40c0 4.4 3.6 8 8 8s8-3.6 8-8l0-40 192 0 0 40c0 4.4 3.6 8 8 8s8-3.6 8-8l0-40 48 0c26.5 0 48 21.5 48 48l0 48L16 176l0-48c0-26.5 21.5-48 48-48l48 0zM432 240a128 128 0 1 1 0 256 128 128 0 1 1 0-256zm0 272a144 144 0 1 0 0-288 144 144 0 1 0 0 288zm80-144c0-4.4-3.6-8-8-8l-144 0c-4.4 0-8 3.6-8 8s3.6 8 8 8l144 0c4.4 0 8-3.6 8-8z"/></svg>

<svg xmlns="http://www.w3.org/2000/svg" viewBox="0 0 576 512"><!--! Font Awesome Pro 6.4.2 by @fontawesome - https://fontawesome.com License - https://fontawesome.com/license (Commercial License) Copyright 2023 Fonticons, Inc. --><path d="M128 8c0-4.4-3.6-8-8-8s-8 3.6-8 8V64H64C28.7 64 0 92.7 0 128v48 16V448c0 35.3 28.7 64 64 64H330.8c-6.9-4.9-13.5-10.2-19.6-16H64c-26.5 0-48-21.5-48-48V192H352h80 16V176 128c0-35.3-28.7-64-64-64H336V8c0-4.4-3.6-8-8-8s-8 3.6-8 8V64H128V8zM112 80v40c0 4.4 3.6 8 8 8s8-3.6 8-8V80H320v40c0 4.4 3.6 8 8 8s8-3.6 8-8V80h48c26.5 0 48 21.5 48 48v48H16V128c0-26.5 21.5-48 48-48h48zM432 240a128 128 0 1 1 0 256 128 128 0 1 1 0-256zm0 272a144 144 0 1 0 0-288 144 144 0 1 0 0 288zm80-144c0-4.4-3.6-8-8-8H360c-4.4 0-8 3.6-8 8s3.6 8 8 8H504c4.4 0 8-3.6 8-8z"/></svg>
